icons-common/stabilizer.svg

<svg height="1em" width="auto" viewBox="0 0 105 105" fill="currentColor" xmlns="http://www.w3.org/2000/svg">
    <path d="M6.48047 39.9997C9.22388 39.4197 11.9673 39.5357 14.7107 39.4971C16.0631 39.4971 17.2223 40.2704 17.7632 41.3917L31.4803 68.8056L24.8729 70.3523L24.9888 44.1756C24.9888 42.3197 26.4958 40.773 28.3891 40.773C32.1758 40.773 35.9625 40.773 39.7492 41.1984C41.372 41.353 42.5698 42.8223 42.4153 44.4849C42.2607 45.9156 41.1402 46.9982 39.7492 47.1529C35.9625 47.5395 32.1758 47.5782 28.3891 47.5782L31.7894 44.1756L31.9053 70.3523C31.9826 73.9868 26.8049 75.1855 25.2979 71.8989L11.7741 44.4076L14.8266 46.3022C12.0832 46.3022 9.3398 46.3796 6.59639 45.7996C3.50522 45.2583 3.54386 40.541 6.59639 39.9997H6.48047Z"
          />
    <path d="M68.7287 59.4481C66.7968 35.3594 95.931 34.6248 95.2355 58.8682L91.5261 55.1563C94.9264 55.7749 101.688 54.035 101.688 59.1388C101.534 60.7628 100.259 62.0001 98.7131 62.1161C95.1582 62.0001 88.6281 64.4747 87.8554 59.3321C87.6235 55.0789 86.1166 49.1631 81.5957 48.9698C77.0363 49.4337 75.6452 55.0789 75.2202 59.6415C74.7952 63.5467 68.9219 63.3534 68.7287 59.4481Z"
          />
    <path d="M60.9236 77.6992H53.5434C45.5837 77.6992 39.1309 71.2421 39.1309 63.2769V41.1215C39.1309 33.1564 45.5837 26.6992 53.5434 26.6992H60.9236C68.8833 26.6992 75.3362 33.1564 75.3362 41.1215V63.2383C75.3362 71.2034 68.8833 77.6606 60.9236 77.6606V77.6992ZM53.5434 33.4657C49.3317 33.4657 45.8928 36.907 45.8928 41.1215V63.2383C45.8928 67.4528 49.3317 70.8941 53.5434 70.8941H60.9236C65.1353 70.8941 68.5742 67.4528 68.5742 63.2383V41.1215C68.5742 36.907 65.1353 33.4657 60.9236 33.4657H53.5434Z"
          />
</svg>

<svg xmlns="http://www.w3.org/2000/svg" width="auto" height="1em" fill="currentColor" viewBox="0 0 105 105">
    <path d="M6.48 40c2.744-.58 5.487-.464 8.23-.503 1.353 0 2.512.773 3.053 1.895L31.48 68.806l-6.607 1.546.116-26.176a3.407 3.407 0 0 1 3.4-3.403c3.787 0 7.573 0 11.36.425 1.623.155 2.82 1.624 2.666 3.287a3 3 0 0 1-2.666 2.668c-3.787.386-7.573.425-11.36.425l3.4-3.402.116 26.176c.078 3.635-5.1 4.834-6.607 1.547L11.774 44.408l3.053 1.894c-2.744 0-5.487.078-8.23-.502-3.092-.542-3.053-5.259 0-5.8zm62.249 19.448c-1.932-24.089 27.202-24.823 26.507-.58l-3.71-3.712c3.4.619 10.162-1.121 10.162 3.983-.154 1.624-1.429 2.861-2.975 2.977-3.555-.116-10.085 2.359-10.858-2.784-.231-4.253-1.738-10.169-6.26-10.362-4.559.464-5.95 6.109-6.375 10.672-.425 3.905-6.298 3.711-6.491-.194"/>
    <path d="M60.924 77.7h-7.38c-7.96 0-14.413-6.458-14.413-14.423V41.12c0-7.965 6.453-14.422 14.412-14.422h7.38c7.96 0 14.413 6.457 14.413 14.422v22.117c0 7.965-6.453 14.423-14.412 14.423zm-7.38-44.234c-4.212 0-7.651 3.441-7.651 7.655v22.117c0 4.215 3.439 7.656 7.65 7.656h7.38c4.212 0 7.651-3.441 7.651-7.656V41.121c0-4.214-3.439-7.655-7.65-7.655z"/>
</svg>
